icons/linear-ele-symbol-check-list-finished.svg

<svg xmlns="http://www.w3.org/2000/svg" width="32px" height="32px" viewBox="0 0 32 32" version="1.1">
    <title>linear-ele-symbol-check-list-finished</title>
    <g id="linear-ele-symbol-check-list-finished" stroke-width="1" fill-rule="evenodd">
        <path d="M23.5792071,5.68481959 C24.0294188,6.00470686 24.1350677,6.62899542 23.8151804,7.07920713 L10.3151804,26.0792071 C9.98433226,26.5448453 9.33133032,26.6392234 8.88217845,26.2863183 L1.88217845,20.7863183 C1.44790682,20.4451049 1.37246824,19.8164501 1.71368166,19.3821784 C2.05489508,18.9479068 2.68354992,18.8724682 3.11782155,19.2136817 L9.292,24.065 L22.1848196,5.92079287 C22.5047069,5.47058116 23.1289954,5.36493233 23.5792071,5.68481959 Z M29.5,24 C30.0522847,24 30.5,24.4477153 30.5,25 C30.5,25.5522847 30.0522847,26 29.5,26 L15.5,26 C14.9477153,26 14.5,25.5522847 14.5,25 C14.5,24.4477153 14.9477153,24 15.5,24 L29.5,24 Z M29.5,18 C30.0522847,18 30.5,18.4477153 30.5,19 C30.5,19.5522847 30.0522847,20 29.5,20 L19.5,20 C18.9477153,20 18.5,19.5522847 18.5,19 C18.5,18.4477153 18.9477153,18 19.5,18 L29.5,18 Z M29.5,12 C30.0522847,12 30.5,12.4477153 30.5,13 C30.5,13.5522847 30.0522847,14 29.5,14 L23.5,14 C22.9477153,14 22.5,13.5522847 22.5,13 C22.5,12.4477153 22.9477153,12 23.5,12 L29.5,12 Z" id="&#24418;&#29366;" fill-rule="nonzero" />
    </g>
</svg>

<svg xmlns="http://www.w3.org/2000/svg" viewBox="0 0 32 32"><path fill="currentColor" d="M23.58 5.685a1 1 0 0 1 .235 1.394l-13.5 19a1 1 0 0 1-1.433.207l-7-5.5a1 1 0 1 1 1.236-1.572l6.174 4.851L22.185 5.921a1 1 0 0 1 1.394-.236M29.5 24a1 1 0 0 1 0 2h-14a1 1 0 0 1 0-2zm0-6a1 1 0 0 1 0 2h-10a1 1 0 0 1 0-2zm0-6a1 1 0 0 1 0 2h-6a1 1 0 0 1 0-2z"/></svg>
